X:6
T:Minuet de la Cour
S:John Moore's Book 1
Z:Transcribed by Paul Barber-Riley  March 2016
M:3/4
L:1/8
K:D
%%VWML: Moore1-4493-p4-0
F:http://www.vwml.org/record/Moore1/4493/p4
c2 c/d/c/d/ e>e | (e2d2)c2 | AcAcAc | d2B2z2 |
c2 c/d/c/d/ e>e | e2d2c2 | cBdc A2G2 | A6|
B2BBBB | c2A2z2 | c2 cAec | c2B2z2 |
e2 eeee | f2 ffff | g2 gggg | a6 |
a2 afge | a2afge | efgf e2^d2 | e3 efe | %this could be a2 afge | a2afge | efg[fe] e2^d2 | e3 efe |
dcBded | cBAefe | dcBded | cBAaga |
g2f2e2 | e2d2c2 | cBdcBA | GBAGFE:|

